src/com/lilithsthrone/res/combat/spell/upgrade/poison_vapours_weakening_cloud.svg

<?xml version="1.0" encoding="UTF-8" standalone="no"?>
<!-- Created with Inkscape (http://www.inkscape.org/) -->

<svg
   xmlns:dc="http://purl.org/dc/elements/1.1/"
   xmlns:cc="http://creativecommons.org/ns#"
   xmlns:rdf="http://www.w3.org/1999/02/22-rdf-syntax-ns#"
   xmlns:svg="http://www.w3.org/2000/svg"
   xmlns="http://www.w3.org/2000/svg"
   xmlns:xlink="http://www.w3.org/1999/xlink"
   xmlns:sodipodi="http://sodipodi.sourceforge.net/DTD/sodipodi-0.dtd"
   xmlns:inkscape="http://www.inkscape.org/namespaces/inkscape"
   viewBox="0 0 256 256"
   id="svg2"
   version="1.1"
   inkscape:version="0.91 r13725"
   sodipodi:docname="poison_vapours_weakening_cloud.svg">
  <defs
     id="defs4">
    <linearGradient
       id="weakeningCloud2"
       inkscape:collect="always">
      <stop
         id="stop4200"
         offset="0"
         style="stop-color:#5aa02c;stop-opacity:1" />
      <stop
         id="stop4202"
         offset="1"
         style="stop-color:#17280b;stop-opacity:1" />
    </linearGradient>
    <linearGradient
       inkscape:collect="always"
       id="weakeningCloud1">
      <stop
         style="stop-color:#85b068;stop-opacity:1;"
         offset="0"
         id="stop4186" />
      <stop
         style="stop-color:#225500;stop-opacity:1"
         offset="1"
         id="stop4188" />
    </linearGradient>
    <inkscape:path-effect
       cusp_linecap_type="round"
       end_linecap_type="zerowidth"
       miter_limit="4"
       linejoin_type="round"
       start_linecap_type="zerowidth"
       interpolator_beta="0.2"
       interpolator_type="Linear"
       sort_points="true"
       offset_points="0.25601354,8.1684104"
       is_visible="true"
       id="path-effect4152"
       effect="powerstroke" />
    <inkscape:path-effect
       effect="powerstroke"
       id="path-effect4154"
       is_visible="true"
       offset_points="0,0.5"
       sort_points="true"
       interpolator_type="CubicBezierJohan"
       interpolator_beta="0.2"
       start_linecap_type="zerowidth"
       linejoin_type="round"
       miter_limit="4"
       end_linecap_type="zerowidth"
       cusp_linecap_type="round" />
    <inkscape:path-effect
       effect="powerstroke"
       id="path-effect4150"
       is_visible="true"
       offset_points="0,0.5"
       sort_points="true"
       interpolator_type="CubicBezierJohan"
       interpolator_beta="0.2"
       start_linecap_type="zerowidth"
       linejoin_type="round"
       miter_limit="4"
       end_linecap_type="zerowidth"
       cusp_linecap_type="round" />
    <inkscape:path-effect
       effect="powerstroke"
       id="path-effect4146"
       is_visible="true"
       offset_points="0.34598408,6.7401315"
       sort_points="true"
       interpolator_type="Linear"
       interpolator_beta="0.2"
       start_linecap_type="zerowidth"
       linejoin_type="round"
       miter_limit="4"
       end_linecap_type="zerowidth"
       cusp_linecap_type="round" />
    <inkscape:path-effect
       effect="powerstroke"
       id="path-effect4146-2"
       is_visible="true"
       offset_points="0.34598408,6.7401315"
       sort_points="true"
       interpolator_type="Linear"
       interpolator_beta="0.2"
       start_linecap_type="zerowidth"
       linejoin_type="round"
       miter_limit="4"
       end_linecap_type="zerowidth"
       cusp_linecap_type="round" />
    <inkscape:path-effect
       effect="powerstroke"
       id="path-effect4146-2-7"
       is_visible="true"
       offset_points="0.34983355,5.1754019"
       sort_points="true"
       interpolator_type="Linear"
       interpolator_beta="0.2"
       start_linecap_type="zerowidth"
       linejoin_type="round"
       miter_limit="4"
       end_linecap_type="zerowidth"
       cusp_linecap_type="round" />
    <inkscape:path-effect
       effect="powerstroke"
       id="path-effect4146-2-4"
       is_visible="true"
       offset_points="0.34598408,6.7401315"
       sort_points="true"
       interpolator_type="Linear"
       interpolator_beta="0.2"
       start_linecap_type="zerowidth"
       linejoin_type="round"
       miter_limit="4"
       end_linecap_type="zerowidth"
       cusp_linecap_type="round" />
    <inkscape:path-effect
       effect="powerstroke"
       id="path-effect4146-2-4-1"
       is_visible="true"
       offset_points="0.25601354,11.696941"
       sort_points="true"
       interpolator_type="Linear"
       interpolator_beta="0.2"
       start_linecap_type="zerowidth"
       linejoin_type="round"
       miter_limit="4"
       end_linecap_type="zerowidth"
       cusp_linecap_type="round" />
    <inkscape:path-effect
       effect="powerstroke"
       id="path-effect4146-2-4-1-0"
       is_visible="true"
       offset_points="0.25601354,11.696941"
       sort_points="true"
       interpolator_type="Linear"
       interpolator_beta="0.2"
       start_linecap_type="zerowidth"
       linejoin_type="round"
       miter_limit="4"
       end_linecap_type="zerowidth"
       cusp_linecap_type="round" />
    <inkscape:path-effect
       effect="powerstroke"
       id="path-effect4146-2-4-1-1"
       is_visible="true"
       offset_points="0.24778369,14.766099"
       sort_points="true"
       interpolator_type="Linear"
       interpolator_beta="0.2"
       start_linecap_type="zerowidth"
       linejoin_type="round"
       miter_limit="4"
       end_linecap_type="zerowidth"
       cusp_linecap_type="round" />
    <inkscape:path-effect
       effect="powerstroke"
       id="path-effect4146-2-4-1-3"
       is_visible="true"
       offset_points="0.25601354,11.696941"
       sort_points="true"
       interpolator_type="Linear"
       interpolator_beta="0.2"
       start_linecap_type="zerowidth"
       linejoin_type="round"
       miter_limit="4"
       end_linecap_type="zerowidth"
       cusp_linecap_type="round" />
    <inkscape:path-effect
       cusp_linecap_type="round"
       end_linecap_type="zerowidth"
       miter_limit="4"
       linejoin_type="round"
       start_linecap_type="zerowidth"
       interpolator_beta="0.2"
       interpolator_type="Linear"
       sort_points="true"
       offset_points="0.25601354,8.1684104"
       is_visible="true"
       id="path-effect4152-6"
       effect="powerstroke" />
    <inkscape:path-effect
       effect="powerstroke"
       id="path-effect4146-2-4-1-7"
       is_visible="true"
       offset_points="0.25601354,11.696941"
       sort_points="true"
       interpolator_type="Linear"
       interpolator_beta="0.2"
       start_linecap_type="zerowidth"
       linejoin_type="round"
       miter_limit="4"
       end_linecap_type="zerowidth"
       cusp_linecap_type="round" />
    <inkscape:path-effect
       cusp_linecap_type="round"
       end_linecap_type="zerowidth"
       miter_limit="4"
       linejoin_type="round"
       start_linecap_type="zerowidth"
       interpolator_beta="0.2"
       interpolator_type="Linear"
       sort_points="true"
       offset_points="0.25601354,8.1684104"
       is_visible="true"
       id="path-effect4152-9"
       effect="powerstroke" />
    <pattern
       y="0"
       x="0"
       height="6"
       width="6"
       patternUnits="userSpaceOnUse"
       id="EMFhbasepattern" />
    <pattern
       y="0"
       x="0"
       height="6"
       width="6"
       patternUnits="userSpaceOnUse"
       id="EMFhbasepattern-2" />
    <pattern
       y="0"
       x="0"
       height="6"
       width="6"
       patternUnits="userSpaceOnUse"
       id="EMFhbasepattern-3" />
    <radialGradient
       inkscape:collect="always"
       xlink:href="#weakeningCloud1"
       id="radialGradient4192"
       cx="126.51667"
       cy="87.301598"
       fx="126.51667"
       fy="87.301598"
       r="70.92087"
       gradientTransform="matrix(1.0001054,0.01396126,-0.01007632,0.72180973,0.85658526,21.54551)"
       gradientUnits="userSpaceOnUse" />
    <radialGradient
       inkscape:collect="always"
       xlink:href="#weakeningCloud2"
       id="radialGradient4196"
       cx="149.13902"
       cy="76.041496"
       fx="149.13902"
       fy="76.041496"
       r="59.239705"
       gradientTransform="matrix(1.3254735,0.01267232,-0.00909637,0.9514434,-47.885304,0.16804733)"
       gradientUnits="userSpaceOnUse" />
  </defs>
  <sodipodi:namedview
     id="base"
     pagecolor="#ffffff"
     bordercolor="#666666"
     borderopacity="1.0"
     inkscape:pageopacity="0.0"
     inkscape:pageshadow="2"
     inkscape:zoom="1.4"
     inkscape:cx="186.44207"
     inkscape:cy="180.74287"
     inkscape:document-units="px"
     inkscape:current-layer="layer2"
     showgrid="false"
     units="px"
     inkscape:window-width="2560"
     inkscape:window-height="1388"
     inkscape:window-x="-8"
     inkscape:window-y="-8"
     inkscape:window-maximized="1" />
  <metadata
     id="metadata7">
    <rdf:RDF>
      <cc:Work
         rdf:about="">
        <dc:format>image/svg+xml</dc:format>
        <dc:type
           rdf:resource="http://purl.org/dc/dcmitype/StillImage" />
        <dc:title />
      </cc:Work>
    </rdf:RDF>
  </metadata>
  <g
     inkscape:groupmode="layer"
     id="layer2"
     inkscape:label="Layer 2"
     style="display:inline">
    <path
       style="display:inline;fill:#71c837;fill-opacity:1;fill-rule:evenodd;stroke:none;stroke-width:2.4253366;stroke-linecap:butt;stroke-linejoin:miter;stroke-miterlimit:4;stroke-dasharray:none;stroke-opacity:1"
       d="m 181.60746,127.44242 -0.11454,16.4402 -52.33157,23.98196 -54.222618,-23.23804 0.123037,-17.64491 54.187061,24.55981 z"
       id="path4194"
       inkscape:connector-curvature="0"
       sodipodi:nodetypes="ccccccc" />
    <path
       style="display:inline;fill:#5aa02c;fill-opacity:1;fill-rule:evenodd;stroke:none;stroke-width:2.4253366;stroke-linecap:butt;stroke-linejoin:miter;stroke-miterlimit:4;stroke-dasharray:none;stroke-opacity:1"
       d="m 181.1832,155.88573 -0.11455,16.44034 -52.33156,23.98201 L 74.514475,173.07 74.637512,155.42493 128.82455,179.9849 Z"
       id="path4194-6"
       inkscape:connector-curvature="0"
       sodipodi:nodetypes="ccccccc" />
    <path
       style="display:inline;fill:#447821;fill-opacity:1;fill-rule:evenodd;stroke:none;stroke-width:2.4253366;stroke-linecap:butt;stroke-linejoin:miter;stroke-miterlimit:4;stroke-dasharray:none;stroke-opacity:1"
       d="m 181.04211,183.83492 -0.11454,16.44035 -52.33157,23.982 -54.222605,-23.23807 0.123037,-17.64508 54.187028,24.55997 z"
       id="path4194-6-0"
       inkscape:connector-curvature="0"
       sodipodi:nodetypes="ccccccc" />
    <path
       inkscape:connector-curvature="0"
       id="path4157"
       d="M 171.34489,91.251717 C 203.2972,111.61968 227.17836,60.123209 184.90542,56.28016 177.8232,36.62577 150.7021,26.908399 123.52646,46.947088 66.759364,43.598117 87.237248,116.06666 134.72597,92.459537 c 11.85863,5.9293 24.10154,5.21558 36.61892,-1.20782 z"
       style="fill:url(#radialGradient4196);fill-opacity:1;fill-rule:evenodd;stroke:none" />
    <path
       inkscape:connector-curvature="0"
       id="path4159"
       d="M 100.08397,113.43142 C 61.928124,137.09367 33.215148,77.416837 83.833396,72.969877 92.397857,50.186231 124.78913,39.041394 157.34519,62.209333 c 67.96655,-3.89785 43.42655,79.990127 -13.39584,52.704397 -14.21914,6.86257 -28.82267,5.98416 -43.86538,-1.48231 z"
       style="fill:url(#radialGradient4192);fill-opacity:1;fill-rule:evenodd;stroke:none" />
  </g>
</svg>

<svg xmlns="http://www.w3.org/2000/svg" xmlns:xlink="http://www.w3.org/1999/xlink" viewBox="0 0 256 256">
    <defs>
        <linearGradient id="weakeningCloud2">
            <stop offset="0" stop-color="#5aa02c"/>
            <stop offset="1" stop-color="#17280b"/>
        </linearGradient>
        <linearGradient id="weakeningCloud1">
            <stop offset="0" stop-color="#85b068"/>
            <stop offset="1" stop-color="#250"/>
        </linearGradient>
        <radialGradient id="radialGradient4192" cx="126.517" cy="87.302" r="70.921" fx="126.517" fy="87.302" gradientTransform="matrix(1.0001 .01396 -.01008 .72181 .857 21.546)" gradientUnits="userSpaceOnUse" xlink:href="#weakeningCloud1"/>
        <radialGradient id="radialGradient4196" cx="149.139" cy="76.041" r="59.24" fx="149.139" fy="76.041" gradientTransform="matrix(1.32547 .01267 -.0091 .95144 -47.885 .168)" gradientUnits="userSpaceOnUse" xlink:href="#weakeningCloud2"/>
    </defs>
    <g fill-rule="evenodd">
        <path fill="#71c837" d="M181.607 127.442l-.114 16.44-52.332 23.983-54.222-23.238.123-17.645 54.187 24.56z"/>
        <path fill="#5aa02c" d="M181.183 155.886l-.114 16.44-52.332 23.982-54.223-23.238.124-17.645 54.187 24.56z"/>
        <path fill="#447821" d="M181.042 183.835l-.114 16.44-52.332 23.982-54.223-23.238.123-17.645 54.187 24.56z"/>
        <path fill="url(#radialGradient4196)" d="M171.345 91.252c31.952 20.368 55.833-31.129 13.56-34.972-7.082-19.654-34.203-29.372-61.379-9.333-56.767-3.349-36.289 69.12 11.2 45.513 11.859 5.929 24.102 5.215 36.619-1.208z"/>
        <path fill="url(#radialGradient4192)" d="M100.084 113.431c-38.156 23.663-66.869-36.014-16.25-40.461 8.564-22.784 40.955-33.929 73.511-10.76 67.967-3.899 43.427 79.99-13.396 52.704-14.219 6.862-28.822 5.984-43.865-1.483z"/>
    </g>
</svg>
